X:1
T:Coda
T:Coda
T:[By Ed Shearmur - For the film K-PAX - Simply wonderful]
%%score { 1 | 2 }
L:1/8
Q:1/4=70
M:3/4
K:D
V:1 treble nm="Piano"
V:2 bass 
V:1
 !fermata![DA]6 | !fermata![EB]6 | !fermata![DA]6 | !fermata![EB]6 | !fermata![DA]6 | %5
 !fermata![EB]6 | [DA]6 | [DEAB]6 | !fermata![DA]6 | !fermata![EB]6 | !fermata![DA]6 | [EB]6 | %12
 e6- | e4 A2 | [Gd]4 [CA]2 | F2 D2 A,2 | G6- | G4 A,2 | [B,DG]4 [CA]2 | F2 D2 A,2 | [DGd]4 bc' | %21
 d'2 a2 bc' | d'e' d'2 c'a | !fermata!b4 bc' | d'2 a2 bc' | d'e' d'2 c'a | [db]6 | z4!8va(! a2 | %28
 d'4 a'2 | f'2 d'2 a2!8va)! | d'6 | z4 [Aa]2 | [dd']4 [aa']2 | [ff']2 [dd']2 [Aa]2 | [dd']6 | %35
 z4 [Bb][cc'] | [dd']2 [Aa]2 [Bb][cc'] | [dd'][ee'] [dd']2 [cc'][Aa] | [Bb]6- | [Bb]4 [Bb][cc'] | %40
 [dd']2 [Aa]2 [Bb][cc'] | [dd'][ee'] [dd']2 [cc'][Aa] | [Bb]6- | [Bb]4 [Aa]2 | [dd']4 [aa']2 | %45
 [ff']2 [dd']2 [Aa]2 | [Fd]6 | z4 [Aa]2 | [dd']4 [aa']2 | [ff']2 [dd']2 [Aa]2 | [dd']6 | B4 Bc | %52
 d2 A2 Bc | de d2 cA | B6 | G4 Bc | d2 A2 Bc | de d2 cA | B6 | z4 a2 | d'4 a'2 | f'2 d'2 a2 | %62
 !fermata!d'6 |] %63
V:2
 !fermata!D,6 | !fermata!E,6 | !fermata!D,6 | !fermata!E,6 | E,6 | B,6 | G,,D,- D,4 | [G,,D,]6 | %8
 !fermata!D,6 | !fermata!E,6 | !fermata!D,6 | [C,A,]6- | [C,A,]6- | [C,A,]6 | [B,,A,]6 | %15
 A,2 F,2 C,2 | G,6- | G,4 C,2 | D,6 | A,2 F,2 C,2 | G,4 [C,A,]2 | [G,D]4 [C,A,]2 | [G,D]4 [C,A,]2 | %23
 !fermata![G,D]4 [C,A,]2 | [G,D]4 [C,A,]2 | [A,F]2 [F,D]2 [C,A,]2 | [G,,D,]6 | z6 | B,,2 [G,A,D]4 | %29
 A,,2 [A,DF]4 | G,,2 [E,G,B,D]4 | A,,2 [F,A,D]4 | B,,2 [G,A,D]4 | A,,2 [F,A,D]4 | G,,2 [E,B,D]4 | %35
 E,,2 [D,G,A,B,]4 | B,,6 | A,,2 [F,CDF]4 | G,,2 [B,DG]4 | E,,2 [A,DG]4 | B,,6 | A,,2 [F,CDF]4 | %42
 G,,2 [D,A,B,]4 | E,,2 [B,DG]4 | D,,2 [F,A,D]4 | B,,2 [A,D]4 | F,,2 [A,D]4 | G,,2 [A,B,D]4 | %48
 A,,2 [A,DF]4 | B,,2 [D,G,A,]4 | F,,2 [A,CD]4 | G,,2 [D,A,B,]4 | B,,2 [A,D]4 | A,,2 [A,CD]4 | %54
 G,,2 [G,B,]4 | E,,2 [G,A,]4 | B,,2 [A,D]4 | A,,2 [F,A,D]4 | G,,2 [G,A,B,]4 | E,,2 [G,A,]4 | %60
 D,2 [A,F]4 | z2 [DG]4 | z4 z2 |] %63

